packages/foundations/assets/icons/functional/images/environment/cloud.svg

<svg xmlns="http://www.w3.org/2000/svg" width="32" height="32" fill="none"><path fill="#1A1C1F" fill-rule="evenodd" d="M18.342 6.106c-1.571.264-3.138 1.087-4.237 2.226-.263.272-.552.589-.641.705l-.164.21-.45-.104c-.362-.083-.638-.102-1.41-.098-.852.004-1.018.02-1.471.141-1.651.441-2.958 1.351-3.845 2.676-.42.629-.544.882-.79 1.615l-.206.614-.327.214c-.179.118-.53.406-.779.641-1.687 1.598-2.384 3.894-1.835 6.044a6.1 6.1 0 0 0 1.543 2.755c.868.912 1.774 1.489 2.945 1.878 1.189.394.772.377 9.352.377 8.571 0 8.072.02 9.284-.374 1.108-.361 1.957-.885 2.802-1.728.577-.575.984-1.132 1.28-1.751.95-1.99.763-4.268-.503-6.145-.344-.51-1.049-1.242-1.521-1.579l-.368-.263-.03-.88c-.031-.938-.106-1.381-.362-2.15a7.5 7.5 0 0 0-5.858-5.018c-.601-.102-1.821-.105-2.409-.006M20.86 8.18a5.5 5.5 0 0 1 3.937 3.88c.181.663.224 1.263.154 2.106l-.063.753.144.246c.094.16.232.296.396.39 1.613.928 2.454 2.157 2.551 3.725.071 1.159-.351 2.25-1.22 3.156-.687.715-1.558 1.202-2.572 1.438-.406.094-.811.099-8.214.099H8.187l-.47-.124c-1.037-.274-1.816-.722-2.5-1.438-.654-.684-1.035-1.454-1.167-2.356-.237-1.623.603-3.324 2.084-4.219.215-.13.492-.332.615-.449.206-.197.233-.256.343-.747.217-.971.594-1.674 1.237-2.305.436-.429.682-.607 1.2-.866 1.068-.535 2.309-.6 3.513-.186.593.203.852.226 1.123.098.215-.102.345-.256.774-.914a5.42 5.42 0 0 1 3.698-2.393c.621-.102 1.583-.056 2.223.106"/></svg>

<svg width="32" height="32" viewBox="0 0 32 32" fill="none" xmlns="http://www.w3.org/2000/svg"><path d="M18.342 6.106 C 16.771 6.370,15.204 7.193,14.105 8.332 C 13.842 8.604,13.553 8.921,13.464 9.037 L 13.300 9.247 12.850 9.143 C 12.488 9.060,12.212 9.041,11.440 9.045 C 10.588 9.049,10.422 9.065,9.969 9.186 C 8.318 9.627,7.011 10.537,6.124 11.862 C 5.704 12.491,5.580 12.744,5.334 13.477 L 5.128 14.091 4.801 14.305 C 4.622 14.423,4.271 14.711,4.022 14.946 C 2.335 16.544,1.638 18.840,2.187 20.990 C 2.454 22.033,2.960 22.937,3.730 23.745 C 4.598 24.657,5.504 25.234,6.675 25.623 C 7.864 26.017,7.447 26.000,16.027 26.000 C 24.598 26.000,24.099 26.020,25.311 25.626 C 26.419 25.265,27.268 24.741,28.113 23.898 C 28.690 23.323,29.097 22.766,29.393 22.147 C 30.343 20.157,30.156 17.879,28.890 16.002 C 28.546 15.492,27.841 14.760,27.369 14.423 L 27.001 14.160 26.971 13.280 C 26.940 12.342,26.865 11.899,26.609 11.130 C 25.738 8.510,23.481 6.576,20.751 6.112 C 20.150 6.010,18.930 6.007,18.342 6.106 M20.860 8.180 C 22.767 8.664,24.278 10.153,24.797 12.060 C 24.978 12.723,25.021 13.323,24.951 14.166 L 24.888 14.919 25.032 15.165 C 25.126 15.325,25.264 15.461,25.428 15.555 C 27.041 16.483,27.882 17.712,27.979 19.280 C 28.050 20.439,27.628 21.530,26.759 22.436 C 26.072 23.151,25.201 23.638,24.187 23.874 C 23.781 23.968,23.376 23.973,15.973 23.973 L 8.187 23.973 7.717 23.849 C 6.680 23.575,5.901 23.127,5.217 22.411 C 4.563 21.727,4.182 20.957,4.050 20.055 C 3.813 18.432,4.653 16.731,6.134 15.836 C 6.349 15.706,6.626 15.504,6.749 15.387 C 6.955 15.190,6.982 15.131,7.092 14.640 C 7.309 13.669,7.686 12.966,8.329 12.335 C 8.765 11.906,9.011 11.728,9.529 11.469 C 10.597 10.934,11.838 10.869,13.042 11.283 C 13.635 11.486,13.894 11.509,14.165 11.381 C 14.380 11.279,14.510 11.125,14.939 10.467 C 15.774 9.184,17.099 8.326,18.637 8.074 C 19.258 7.972,20.220 8.018,20.860 8.180 " fill="#1A1C1F" stroke="none" fill-rule="evenodd"></path></svg>
